X:127
%%musicspace -13
%%topspace -50
T:Around the World for Sport
M:6/8
L:1/8
K:G
"G"G2G GFG | "D"A2A AGA | "Em"B2B BAG | "C"B2E "D"E2F | "G"G2G GFG | "D"A2A ABc | 
"C"dcB "D"AGF | "Em"GEE E3 :|]|: "Em"e2f gfe | "D"fag fed | "Em"e2f gfe | "Bm"f2B BAB | 
"Em"e2f gfe | "D"fag fed | "C"efg "D"fgf | "Em"e3 e2 f :|]|: "Em"gee e2f | "C"gee e2f | 
"A"gfe a2g | "D"f2e def | "G"g2e "D"a2f | "C"gfe "Bm"d2d | "C"efg "D"fgf | "Em"e3 e3 :|]

